X: 1
T: Phillebelula All The Way
M: 4/4
L: 1/8
R: fling or whatever
K: Dmaj
f>e|d>cd>B A2G>F|(3EEE F>G A2B>c|d>BA>B d>de>c|d6:|
d>e|f2f2 f2g>f|g>fe2 e4|d2d2 d2e>d|c>BA2 A2B>c|
(3ded (3cBA B>cd| (3ded (3cBA B>cd2|e2 (3efg a2 (3ABc|d6||
